images/trophy.svg

<svg width="21" height="24" viewBox="0 0 21 24" fill="none" xmlns="http://www.w3.org/2000/svg">
<path fill-rule="evenodd" clip-rule="evenodd" d="M0.51019 0.0629992C0.418327 0.102331 0.277602 0.210882 0.197406 0.304195C0.117266 0.397507 0.0364679 0.553224 0.0178981 0.650185C-0.000671767 0.7472 -0.00560164 1.58556 0.00694258 2.51327C0.0257863 3.90329 0.0464375 4.25658 0.124442 4.52192C0.176536 4.699 0.315837 5.04123 0.434049 5.28248C0.55226 5.52373 0.793504 5.89929 0.970164 6.11703C1.14677 6.33473 1.47823 6.65072 1.70666 6.8191C1.93514 6.98754 2.29947 7.20866 2.51633 7.31045C2.7332 7.41224 3.03985 7.52385 3.19783 7.55852L3.48509 7.62146L3.51248 8.56682C3.5351 9.34626 3.56413 9.60232 3.67785 10.0259C3.75372 10.3084 3.89362 10.7227 3.98877 10.9465C4.08387 11.1704 4.31301 11.5791 4.49788 11.8548C4.68281 12.1305 5.04506 12.5627 5.3029 12.8152C5.56069 13.0678 6.00193 13.4227 6.28338 13.6038C6.56489 13.7849 6.98394 14.0102 7.21461 14.1044C7.44534 14.1986 7.8868 14.3369 8.19558 14.4119L8.75706 14.5481V14.9948V15.4415L8.1408 15.4421C7.78754 15.4425 7.40765 15.4743 7.25066 15.5168C7.10002 15.5576 6.8889 15.6282 6.78153 15.6737C6.67417 15.7192 6.4561 15.8523 6.29697 15.9695C6.13784 16.0866 5.90804 16.3115 5.78627 16.4692C5.66455 16.627 5.52793 16.8406 5.48269 16.9439C5.43744 17.0472 5.36716 17.2524 5.32651 17.4C5.27387 17.5909 5.25234 18.0515 5.25191 18.9965L5.25125 20.3248L4.38849 21.5928L3.52573 22.8607V23.1716C3.52573 23.4018 3.55504 23.5208 3.63869 23.6306C3.7008 23.7121 3.81967 23.8285 3.90288 23.8894C4.05369 23.9996 4.0751 24 10.51 24C16.9448 24 16.9662 23.9996 17.117 23.8894C17.2003 23.8285 17.3191 23.7121 17.3812 23.6306C17.4649 23.5208 17.4942 23.4018 17.4942 23.1716V22.8607L16.6314 21.5928L15.7687 20.3248L15.768 18.9965C15.7676 18.053 15.746 17.5906 15.6936 17.4C15.653 17.2524 15.5622 17.011 15.4919 16.8634C15.4188 16.71 15.1985 16.4327 14.9775 16.2159C14.7649 16.0073 14.4737 15.7817 14.3304 15.7146C14.1871 15.6474 13.9406 15.5589 13.7826 15.5176C13.6188 15.4749 13.2306 15.4425 12.8791 15.4421L12.2629 15.4415V14.9948V14.5481L12.8278 14.4112C13.1385 14.3359 13.5962 14.1879 13.8449 14.0823C14.0937 13.9767 14.5112 13.7523 14.7728 13.5836C15.0343 13.4148 15.4631 13.0657 15.7257 12.8077C15.9882 12.5498 16.342 12.1299 16.5119 11.8746C16.6817 11.6193 16.9064 11.2169 17.0111 10.9802C17.1158 10.7435 17.2641 10.3164 17.3408 10.0311C17.456 9.60178 17.4848 9.34895 17.5074 8.56682L17.5348 7.62146L17.8221 7.55852C17.9801 7.52385 18.2914 7.41037 18.5139 7.30627C18.7364 7.20217 19.1017 6.97992 19.3256 6.81229C19.5496 6.64471 19.8764 6.33065 20.0519 6.11435C20.2274 5.89811 20.4677 5.52373 20.586 5.28248C20.7043 5.04123 20.8458 4.68692 20.9005 4.49509C20.9876 4.18972 21 3.92138 21 2.33936C21 0.598029 20.9959 0.526985 20.887 0.384092C20.8249 0.302585 20.7061 0.186092 20.6229 0.125243L20.4716 0.0145991L10.5744 0.00306249C2.42978 -0.00643508 0.647684 0.00418935 0.51019 0.0629992ZM3.49834 3.7707C3.49834 4.90692 3.4852 5.83656 3.46915 5.83656C3.45304 5.83656 3.31204 5.77308 3.15571 5.69549C2.99937 5.6179 2.71989 5.40589 2.53463 5.22448C2.34943 5.043 2.13283 4.76891 2.0534 4.61534C1.97398 4.46182 1.87258 4.18479 1.82805 3.99977C1.77228 3.76823 1.74681 3.35812 1.74626 2.68412L1.74544 1.70485H2.62189H3.49834V3.7707ZM19.2736 2.65729C19.2729 3.27726 19.2451 3.73674 19.1939 3.97353C19.1506 4.17368 19.0463 4.46182 18.962 4.61395C18.8778 4.76602 18.6944 5.01279 18.5545 5.16228C18.4146 5.31178 18.1681 5.51144 18.0068 5.60588C17.8454 5.70037 17.6701 5.79352 17.6174 5.81284C17.5272 5.846 17.5216 5.72704 17.5216 3.77644V1.70485H18.398H19.2745L19.2736 2.65729Z" fill="white"/>
</svg>

<svg width="21" height="24" fill="none" xmlns="http://www.w3.org/2000/svg"><path fill-rule="evenodd" clip-rule="evenodd" d="M.51.063a1.05 1.05 0 0 0-.313.241.908.908 0 0 0-.18.346C0 .747-.005 1.586.008 2.513c.019 1.39.04 1.744.117 2.009.053.177.192.52.31.76.118.242.36.617.536.835.177.218.508.534.737.702.228.169.592.39.81.491.216.102.523.214.68.249l.288.062.027.946c.023.78.052 1.035.166 1.459.076.282.216.697.31.92.096.224.325.633.51.909.185.275.547.708.805.96.258.253.699.608.98.789.282.18.7.406.932.5.23.095.672.233.98.308l.562.136v.894h-.616c-.353 0-.733.032-.89.075-.151.04-.362.111-.47.157a3.11 3.11 0 0 0-.484.296c-.16.117-.389.341-.51.5a2.984 2.984 0 0 0-.304.474 4.13 4.13 0 0 0-.156.456c-.053.19-.075.652-.075 1.597v1.328l-.864 1.268-.862 1.268v.31c0 .23.029.35.113.46.062.081.18.197.264.258.15.11.172.111 6.607.111 6.435 0 6.456 0 6.607-.11.083-.062.202-.178.264-.26.084-.11.113-.228.113-.458v-.311l-.863-1.268-.862-1.268-.001-1.328c0-.944-.022-1.406-.074-1.597a3.945 3.945 0 0 0-.202-.537c-.073-.153-.294-.43-.515-.647-.212-.209-.503-.434-.647-.501a3.855 3.855 0 0 0-.547-.197c-.164-.043-.552-.075-.904-.076h-.616v-.894l.565-.137a7.95 7.95 0 0 0 1.017-.329c.249-.105.666-.33.928-.498.261-.17.69-.518.953-.776a7.18 7.18 0 0 0 .786-.933 7.32 7.32 0 0 0 .5-.895c.104-.237.252-.664.329-.949.115-.43.144-.682.166-1.464l.028-.946.287-.062c.158-.035.47-.149.692-.253a5.62 5.62 0 0 0 .812-.494 4.89 4.89 0 0 0 .726-.698c.175-.216.416-.59.534-.832.118-.24.26-.595.315-.787.087-.305.099-.574.099-2.156 0-1.741-.004-1.812-.113-1.955a1.55 1.55 0 0 0-.264-.259l-.151-.11-9.898-.012C2.43-.007.648.004.51.063Zm2.988 3.708c0 1.136-.013 2.066-.029 2.066s-.157-.064-.313-.142a3.095 3.095 0 0 1-1.103-1.08A3.337 3.337 0 0 1 1.828 4c-.056-.232-.081-.642-.082-1.316v-.98h1.752v2.067Zm15.776-1.114c-.001.62-.029 1.08-.08 1.317a2.82 2.82 0 0 1-.232.64 3.369 3.369 0 0 1-.407.548c-.14.15-.387.35-.548.444a4.012 4.012 0 0 1-.39.207c-.09.033-.095-.086-.095-2.037V1.705h1.753l-.001.952Z" fill="#fff"/></svg>
